X:390
T:Merry Blacksmith, The
M:C|
L:1/8
Q:200
S:THSP
R:reel
Z:
K:D
"D"d2dA BAFA|ABdA BAFA| ABde fded | "Em"Beed "A"egfe |
"D"d2 dA BAFA |DAFA BAFA | ABde fdec
|1 "A"dBAF "D"D3c :|2 d"A"BAF "D"D2 z2|:
"D"a2ag f2fe |d2dA BAFA |ABde fded|"Em"Beed "A"efge|
"D"a2ag f2fe|dcdA BAFA|ABde fdec |1 "A"dBAF "D"D2 z2 :|2 "A"dBAF "D"D3 c
|]
